X:785
L:1/8
M:4/4
K:F
 F2 A2 c2 dc | B2 G2 F2 C2 | FFAA c2 BA | G4 z4 | B2 d2 f2 ed | dc c2 fA A2 | GABc d2 cB | A8 |]

